flaticon/fitness/weight-2.svg

<svg xmlns="http://www.w3.org/2000/svg" width="32" height="32" viewBox="0 0 24 24">
    <path d="M 22.398438 9.601562 L 22 9.601562 L 22 7.601562 C 22 6.039062 20.761719 4.800781 19.199219 4.800781 C 18.414062 4.800781 17.707031 5.117188 17.199219 5.628906 L 17.199219 5.199219 C 17.199219 3.640625 15.960938 2.398438 14.398438 2.398438 C 13.613281 2.398438 12.90625 2.714844 12.398438 3.230469 L 12.398438 2.800781 C 12.398438 1.238281 11.160156 0 9.601562 0 C 8.039062 0 6.800781 1.238281 6.800781 2.800781 L 6.800781 7.199219 L 1.519531 7.199219 C 0.921875 7.199219 0.398438 7.71875 0.398438 8.320312 L 0.398438 15.679688 C 0.398438 16.28125 0.921875 16.800781 1.519531 16.800781 L 6.800781 16.800781 L 6.800781 21.199219 C 6.800781 22.761719 8.039062 24 9.601562 24 C 11.160156 24 12.398438 22.761719 12.398438 21.199219 L 12.398438 20.769531 C 12.90625 21.285156 13.613281 21.601562 14.398438 21.601562 C 15.921875 21.601562 17.199219 20.359375 17.199219 18.800781 L 17.199219 18.371094 C 17.707031 18.882812 18.410156 19.199219 19.199219 19.199219 C 20.71875 19.199219 22 17.960938 22 16.398438 L 22 14 L 22.398438 14 C 23.039062 14 23.601562 13.480469 23.601562 12.800781 L 23.601562 10.800781 C 23.601562 10.121094 23.078125 9.601562 22.398438 9.601562 Z M 1.519531 16 C 1.359375 16 1.199219 15.839844 1.199219 15.679688 L 1.199219 15.199219 L 2.800781 15.199219 C 3 15.199219 3.199219 15.039062 3.199219 14.800781 C 3.199219 14.558594 3.039062 14.398438 2.800781 14.398438 L 1.199219 14.398438 L 1.199219 13.601562 L 2.398438 13.601562 C 2.601562 13.601562 2.800781 13.441406 2.800781 13.199219 C 2.800781 12.960938 2.640625 12.800781 2.398438 12.800781 L 1.199219 12.800781 L 1.199219 12 L 2 12 C 2.199219 12 2.398438 11.839844 2.398438 11.601562 C 2.398438 11.359375 2.238281 11.199219 2 11.199219 L 1.199219 11.199219 L 1.199219 8.320312 C 1.199219 8.160156 1.359375 8 1.519531 8 L 6.800781 8 L 6.800781 16 Z M 11.601562 21.199219 C 11.601562 22.320312 10.71875 23.199219 9.601562 23.199219 C 8.480469 23.199219 7.601562 22.320312 7.601562 21.199219 L 7.601562 2.800781 C 7.601562 1.679688 8.480469 0.800781 9.601562 0.800781 C 10.679688 0.800781 11.601562 1.679688 11.601562 2.800781 Z M 16.398438 18.800781 C 16.398438 19.921875 15.519531 20.800781 14.398438 20.800781 C 13.28125 20.800781 12.398438 19.921875 12.398438 18.800781 L 12.398438 5.199219 C 12.398438 4.078125 13.28125 3.199219 14.398438 3.199219 C 15.480469 3.199219 16.398438 4.078125 16.398438 5.199219 Z M 21.199219 16.398438 C 21.199219 17.519531 20.320312 18.398438 19.199219 18.398438 C 18.078125 18.398438 17.199219 17.519531 17.199219 16.398438 L 17.199219 7.601562 C 17.199219 6.480469 18.078125 5.601562 19.199219 5.601562 C 20.28125 5.601562 21.199219 6.480469 21.199219 7.601562 Z M 22.800781 12.800781 C 22.800781 13.039062 22.640625 13.199219 22.398438 13.199219 L 22 13.199219 L 22 10.398438 L 22.398438 10.398438 C 22.640625 10.398438 22.800781 10.558594 22.800781 10.800781 Z M 22.800781 12.800781"/>
</svg>

<svg xmlns="http://www.w3.org/2000/svg" width="32" height="32" viewBox="0 0 24 24">
    <path d="M22.398 9.602H22v-2C22 6.039 20.762 4.8 19.2 4.8c-.786 0-1.493.316-2 .828v-.43c0-1.558-1.24-2.8-2.802-2.8-.785 0-1.492.316-2 .831V2.8A2.78 2.78 0 0 0 9.602 0 2.781 2.781 0 0 0 6.8 2.8v4.4H1.52C.922 7.2.398 7.718.398 8.32v7.36c0 .601.524 1.12 1.122 1.12H6.8v4.4c0 1.562 1.24 2.8 2.802 2.8a2.78 2.78 0 0 0 2.796-2.8v-.43a2.808 2.808 0 0 0 4.8-1.969l.001-.43a2.808 2.808 0 0 0 4.8-1.973L22.001 14h.398c.641 0 1.204-.52 1.204-1.2v-2c0-.679-.524-1.198-1.204-1.198zM1.52 16c-.16 0-.32-.16-.32-.32v-.48h1.6a.4.4 0 0 0 .4-.4c0-.241-.16-.402-.4-.402H1.2v-.796h1.198c.204 0 .403-.16.403-.403 0-.238-.16-.398-.403-.398H1.2V12H2a.4.4 0 0 0 .398-.398c0-.243-.16-.403-.398-.403h-.8V8.32c0-.16.16-.32.32-.32H6.8v8zm10.082 5.2c0 1.12-.883 2-2 2-1.122 0-2-.88-2-2V2.8c0-1.12.878-2 2-2 1.078 0 2 .88 2 2zm4.796-2.4c0 1.122-.878 2-2 2-1.117 0-2-.878-2-2V5.2c0-1.122.883-2 2-2 1.082 0 2 .878 2 2zm4.801-2.402c0 1.122-.879 2-2 2-1.12 0-2-.878-2-2V7.602c0-1.122.88-2 2-2 1.082 0 2 .878 2 2zm1.602-3.597c0 .238-.16.398-.403.398H22v-2.8h.398c.243 0 .403.16.403.402zm0 0"/>
</svg>
